X:1
T:Title
%%score { 1 | 2 }
L:1/8
Q:1/4=126
M:6/4
K:Ab
V:1 treble nm="Grand Piano"
V:2 bass 
V:1
 [Ec]4 [DB]2 [CA]4 [A,C]2 | [CE]4 A2 G6 | d4 F2 G4 F2 | E6 .[CA]6 | [Ec]4 [DB]2 [CA]4 E2 | %5
w: John~R.~Sweney * * *|||||
 F4 [FA]2 [Fd]6 | c4 A2 B4 c2 | B6 .[CEA]6 | [FA]4 [FA]2 [Fd]4 [Fe]2 | [Fd]4 [Ec]2 [Ec]6 | %10
w: |||||
 e4 f2 e4 c2 | B4 c2 B6 | c4 e2 A4 E2 | F4 [FA]2 [Fd]6 | c4 A2 B4 c2 | B6 .[CEA]6 |] %16
w: ||||||
V:2
 [A,,A,]4 [A,,E,]2 [A,,E,]4 [A,,E,]2 | [A,,A,]4 [A,CE]2 [E,B,E]6 | %2
 [E,G,E]4 [E,G,D]2 [E,B,D]4 [E,G,D]2 | [A,C]6 .[A,,E,]6 | [A,,A,]4 [A,,E,]2 [A,,E,]4 [C,A,]2 | %5
 [D,A,D]4 [D,D]2 [D,A,]6 | [E,A,E]4 [E,CE]2 [E,DE]4 [E,E]2 | [E,DE]6 .A,,6 | %8
 [D,D]4 [D,D]2 [D,A,]4 [D,A,]2 | [A,,A,]4 [A,,A,]2 [A,,A,]6 | %10
 [A,CA]4 [A,DA]2 [A,CA]4[K:bass] [A,E]2 | [E,G,E]4 [E,A,E]2 [E,G,E]6 | %12
 [A,E]4 [A,CE]2 [A,CE]4 [C,A,]2 | [D,A,D]4 [D,D]2 [D,A,]6 | [E,A,E]4 [E,CE]2 [E,DE]4 [E,E]2 | %15
 [E,DE]6 .A,,6 |] %16

